icons/document-help-outline.svg

<svg xmlns="http://www.w3.org/2000/svg" width="24" height="24" viewBox="0 0 24 24">
  <path d="M12,1 L12,8 C12,8.55228475 12.4477153,9 13,9 L20,9 L20,21 C20,22.1045695 19.1045695,23 18,23 L6,23 C4.8954305,23 4,22.1045695 4,21 L4,3 C4,1.8954305 4.8954305,1 6,1 L12,1 Z M10,3 L6,3 L6,21 L18,21 L18,11 L13,11 C11.4023191,11 10.0963391,9.75108004 10.0050927,8.17627279 L10,8 L10,3 Z M12.0001686,18 C12.5524586,18 13.0001686,18.4477 13.0001686,19 C13.0001686,19.5523 12.5524586,20 12.0001686,20 C11.4478886,20 11.0001686,19.5523 11.0001686,19 C11.0001686,18.4477 11.4478886,18 12.0001686,18 Z M12.0001686,12 C12.5537486,12 13.1555886,12.16344 13.6376686,12.525 C14.1397686,12.90158 14.5001686,13.48991 14.5001686,14.25 C14.5001686,14.69838 14.3847686,15.07994 14.1710686,15.4004 C13.9664386,15.70737 13.7009186,15.91339 13.4787086,16.06154 C13.3700286,16.134 13.2594286,16.20036 13.1657686,16.25656 L13.1657686,16.25656 C13.0591686,16.32052 12.9769786,16.37001 12.9005986,16.42093 C12.7478286,16.52279 12.6695886,16.59803 12.6242286,16.66609 C12.3944886,17.01075 11.9288386,17.10391 11.5841786,16.87417 C11.2395186,16.64442 11.1463586,16.17878 11.3760986,15.83412 C11.5807386,15.52712 11.8462486,15.32107 12.0684786,15.1729 C12.1772086,15.10041 12.2878586,15.03402 12.3815586,14.9778 L12.3815586,14.9778 C12.4880486,14.9139 12.5702386,14.86441 12.6466286,14.81349 C12.7994086,14.71162 12.8776486,14.63639 12.9229986,14.56835 C12.9593586,14.51381 13.0001686,14.42662 13.0001686,14.25 C13.0001686,14.01009 12.9022286,13.84842 12.7376686,13.725 C12.5530786,13.58656 12.2799186,13.5 12.0001686,13.5 C11.6314086,13.5 11.4046986,13.59004 11.2599386,13.68654 C11.1104886,13.78617 11.0014986,13.92438 10.9209886,14.08541 C10.7357486,14.45589 10.2852386,14.60606 9.91475858,14.42082 C9.54426858,14.23558 9.39409858,13.78507 9.57934858,13.41459 C9.74882858,13.07562 10.0148386,12.71383 10.4278886,12.43846 C10.8456386,12.15996 11.3689286,12 12.0001686,12 Z M14,1 L20,7 L15,7 C14.4871642,7 14.0644928,6.61395981 14.0067277,6.11662113 L14,6 L14,1 Z"/>
</svg>

<svg xmlns="http://www.w3.org/2000/svg" viewBox="0 0 24 24">
  <path d="M12 1v7a1 1 0 0 0 1 1h7v12a2 2 0 0 1-2 2H6a2 2 0 0 1-2-2V3c0-1.1.9-2 2-2h6zm-2 2H6v18h12V11h-5a3 3 0 0 1-3-2.82V3zm2 15a1 1 0 1 1 0 2 1 1 0 0 1 0-2zm0-6c.55 0 1.16.16 1.64.53.5.37.86.96.86 1.72a2.03 2.03 0 0 1-1.02 1.81l-.31.2-.27.16a.96.96 0 0 0-.28.25.75.75 0 0 1-1.24-.84c.2-.3.47-.5.69-.66l.31-.2c.1-.06.19-.1.27-.16.15-.1.23-.17.27-.24a.54.54 0 0 0 .08-.32c0-.24-.1-.4-.26-.53a1.26 1.26 0 0 0-.74-.22c-.37 0-.6.09-.74.19a1 1 0 0 0-.34.4.75.75 0 0 1-1.34-.68c.17-.33.43-.7.85-.97.42-.28.94-.44 1.57-.44zm2-11 6 6h-5a1 1 0 0 1-1-.88V1z"/>
</svg>
